static/assets/template/assets/img/icons/essential/detailed/Phone.svg

<svg height="135" viewBox="0 0 149 135" width="149" xmlns="http://www.w3.org/2000/svg"><g fill="none" fill-rule="evenodd" transform="translate(1 1)"><path d="m15.2 92.5c-2.4-3.4-4.7-7-6.9-10.8-2.9-5.2-5.1-10.7-6.6-16.5-1.9-7.3-.3-14 3.8-20.1 1.5-2.1 3.1-4.2 4.7-6.2 4.5-5.5 12.2-7 18.1-3 4.7 3.2 9.3 6.7 13.6 10.5 5.2 4.5 5.8 11.9 2 17.6-1.2 1.7-2.5 3.3-3.8 5-2.8 3.6-2.6 6.8.4 10.1 7.4 8.1 16.1 14.5 25.8 19.7 3.6 1.9 6.8 1.2 9.4-2 1.3-1.6 2.5-3.3 3.9-4.9 4.6-5.5 12.5-6.8 18.4-2.7 4.3 3 8.5 6.2 12.5 9.6 5.5 4.5 6.6 12.1 2.7 18-3.5 5.2-7.1 10.4-13 13.2-2.5 1.2-5.2 1.9-6.8 2.5-8 .5-14.7-.2-21.3-1.9-24-6.1-43.1-18.8-56.9-38.1" fill-rule="nonzero"/><path d="m109.6 119.2c-2.3 3.5-4.7 6.9-7.8 9.6 0 0-.1.1-.1.1-.4.4-.9.7-1.3 1-.5.2-.9.4-1.4.6-1.6.7-3.2 1.2-4.5 1.6-.3.1-.5.2-.7.3-.2 0-.5 0-.7 0-5.2.3-9.9 0-14.4-.7-.5-.1-1-.2-1.5-.3-.1 0-.1 0-.2 0-.5-.1-1.1-.2-1.6-.3-.9-.2-1.8-.4-2.7-.6-27.9-7-49.1-23.1-63.2-48.3-.4-.8-.8-1.5-1.2-2.3s-.8-1.6-1.2-2.4c-.3-.6-.6-1.3-.9-2-.1-.3-.3-.6-.4-.9-.3-.6-.5-1.2-.7-1.8 0-.1-.1-.1-.1-.2-.2-.7-.4-1.3-.5-2-.3-1-.4-1.9-.6-2.9-.2-1.3-.2-2.5-.2-3.7 0-.2 0-.4 0-.6 0-.3 0-.5.1-.8 0-.1 0-.1 0-.2 0-.2.1-.5.1-.7s0-.3.1-.5c0-.2.1-.4.1-.7.1-.3.1-.5.2-.8.1-.5.3-1 .4-1.5 0-.2.1-.3.2-.5s.1-.4.2-.6.2-.5.3-.7c.1-.3.3-.6.4-.9.1-.1.1-.3.2-.4.1-.2.2-.5.4-.7.3-.6.6-1.1 1-1.7.2-.4.5-.8.7-1.2 1.4-2 2.9-3.9 4.5-5.8 4.2-5.2 11.5-6.6 17-2.9.4.3.8.6 1.3.9 4.3 3 9.4 7.3 12.7 10.3.2.2.4.3.6.5 1 1.3 1.7 2.8 2.1 4.4.1.5.2 1.1.3 1.6-.4 1.4-1 2.7-1.9 3.9-1.1 1.7-2.5 3.3-3.7 4.9-.1.1-.2.3-.3.4-.5.7-.9 1.4-1.2 2.1-.6 1.5-.6 2.9-.1 4.3-.1.3-.2.5-.3.8-.6 2.2 0 4.3 2 6.5 7 7.7 15.2 13.7 24.3 18.6 3.4 1.8 6.4 1.1 8.8-1.9 1.2-1.5 2.4-3.1 3.7-4.6 3.9-4.7 10.3-6.1 15.6-3.5.3.1.6.3.9.5s.6.4.8.5c4 2.8 8 5.9 11.8 9 .2.1.3.3.5.4.1.1.2.2.3.3s.2.2.3.3c.8.8 1.4 1.6 1.9 2.5.1.2.2.3.3.5.1.1.2.3.2.5.2.4.4.8.5 1.3 0 .1.1.2.1.3.1.2.1.3.1.5.1.3.1.5.2.8v.1c.1.3.1.5.1.8v.5.5c.4 2.8-.3 5.5-1.9 7.9z" fill-rule="nonzero"/><path d="m109.6 119.2c-2.3 3.4-4.5 7.1-7.8 9.6 0 0-.1.1-.1.1-.9.6-1.8 1.2-2.8 1.7-1.4.7-2.9 1.2-4.5 1.6-.5.1-1 .2-1.5.3-.9.1-1.8.2-2.6.3-3.9.1-7.9-.3-11.8-.9-.5-.1-1-.2-1.5-.3-.1 0-.1 0-.2 0-.5-.1-1.1-.2-1.6-.3-.9-.2-1.8-.4-2.7-.6-27.9-7-49.1-23.1-63.2-48.3-.4-.8-.8-1.5-1.2-2.3s-.8-1.6-1.2-2.4c-.3-.6-.6-1.3-.9-2-.1-.3-.3-.6-.4-.9-.3-.6-.5-1.2-.7-1.8 0-.1-.1-.1-.1-.2-.2-.7-.4-1.3-.5-2-.3-1-.4-1.9-.6-2.9-.2-1.3-.2-2.5-.2-3.7 0-.2 0-.4 0-.6 0-.3 0-.5.1-.8 0-.1 0-.1 0-.2 0-.2.1-.5.1-.7s0-.3.1-.5c0-.2.1-.4.1-.7.1-.3.1-.5.2-.8.1-.5.3-1 .4-1.5 0-.2.1-.3.2-.5s.1-.4.2-.6.2-.5.3-.7c.1-.3.3-.6.4-.9.1-.1.1-.3.2-.4.1-.2.2-.5.4-.7.3-.6.6-1.1 1-1.7.2-.4.5-.8.7-1.2 1.4-2 2.9-3.9 4.5-5.8 4.2-5.2 11.5-6.6 17-2.9.4.3.8.6 1.3.9 4.3 3 9.4 7.3 12.7 10.3-.4 1-.9 2-1.5 3-1.1 1.6-2.4 3.1-3.6 4.7-.6.8-1.1 1.5-1.4 2.3-1 2.5-.4 1.5 1.8 3.9.4.4.7.8 1.1 1.2l.7.7.3.3c-.6.7-1.1 1.3-1.5 1.9-.1.1-.2.3-.3.4-.1.2-.2.3-.3.5-.2.4-.4.7-.6 1.2-.9 2.1-.6 1.7.9 3 .3.2.6.5.9.9 7 7.7 16.3 15.9 25.4 20.8 3.4 1.8 5.3 3.4 7.7.3 1.2-1.5 2.4-3.1 3.7-4.6 3.9-4.7 11.3-5.2 16.8-2.4.3.1.6.3.9.5s.6.4.8.5c4 2.8 8 5.9 11.8 9 .2.1.3.3.5.4l.3.3c.1.1.2.2.3.3.8.8 1.4 1.6 1.9 2.5.1.2.2.3.3.5.1.1.2.3.2.5.2.4.4.8.5 1.3 0 .1.1.2.1.3.1.2.1.3.1.5.1.3.1.5.2.8v.1c.1.3.1.5.1.8v.5.5c.4 2.5-.3 5.2-1.9 7.6z" fill-rule="nonzero"/><path d="m110.1 105.8c-.4 1.2-.9 2.3-1.6 3.3-2.3 3.5-4.5 7.2-8 9.7-3.3 2.3-7.3 3.7-11.3 3.8-4.4.1-8.9-.4-13.3-1.2-1.5-.3-3-.6-4.5-1-27.9-7-49.1-23.1-63.2-48.3-1.7-3.1-3.2-6.3-4.4-9.6v-.1c0-.2.1-.5.1-.7s0-.3.1-.5c0-.2.1-.4.1-.7.1-.3.1-.5.2-.8.1-.5.3-1 .4-1.5 0-.2.1-.3.2-.5s.1-.4.2-.6.2-.5.3-.7c.1-.3.3-.6.4-.9.1-.1.1-.3.2-.4.1-.2.2-.5.4-.7.3-.6.6-1.1 1-1.7.2-.4.5-.8.7-1.2 1.4-2 2.9-3.9 4.5-5.8 4.2-5.2 11.5-6.6 17-2.9.4.3.8.6 1.3.9 4.3 3 9.4 7.3 12.7 10.3.2.2.4.3.6.5 1.4 1.3 2.5 2.2 2.9 2.7-.2.6-.5 1.2-.8 1.8-1.7 3.4-4.6 5.8-5.7 8.4-.4.9-.5 1.4-.5 1.7 0 .4.3.5.7.7.1.1.2.1.3.2-.6.7-1.1 1.3-1.5 1.9-.1.1-.2.3-.3.4-.1.2-.2.3-.3.5-.2.4-.4.7-.6 1.2-.9 2.1-.6 1.7.9 3 .3.2.6.5.9.9 7 7.7 16.3 15.9 25.4 20.8 3.4 1.8 5.3 3.4 7.7.3 1.2-1.5 2.4-3.1 3.7-4.6 3.9-4.7 11.3-5.2 16.8-2.4.3.1.6.3.9.5s.6.4.8.5c4 2.8 8 5.9 11.8 9 .2.1.3.3.5.4.1.1.2.2.3.3s.2.2.3.3c.5 1.1 1.1 1.9 1.7 2.8z" fill-rule="nonzero"/><g stroke-linecap="round" stroke-linejoin="round" stroke-width="2.8204"><path d="m36.4 41.8c.1 0 .1.1.2.1"/><path d="m14.6 91.7c-2.2-3.1-4.4-6.5-6.3-10-2.9-5.2-5.1-10.7-6.6-16.5-1.9-7.3-.3-14 3.8-20.1 1.5-2.1 3.1-4.2 4.7-6.2 4.5-5.5 12.2-7 18.1-3 .9.6 1.8 1.3 2.8 1.9"/><path d="m52.7 123.8c-11.6-5.6-23.7-14.2-33.9-26.7"/><path d="m41.9 46.3c5.2 4.5 5.8 11.9 2 17.6-1.2 1.7-2.5 3.3-3.8 5-2.8 3.6-2.6 6.8.4 10.1 7.4 8.1 16.1 14.5 25.8 19.7 3.6 1.9 6.8 1.2 9.4-2 1.3-1.6 2.5-3.3 3.9-4.9 4.6-5.5 12.5-6.8 18.4-2.7 4.3 3 8.5 6.2 12.5 9.6 5.5 4.5 6.6 12.1 2.7 18-5.1 7.6-9.3 13.4-19.8 15.3-7.4 1.4-20 .2-33.9-5.2"/><path d="m25.4 50-14.6-11.7"/><path d="m34.2 57-2.9-2.3"/><path d="m103.3 110.5-23.5-18.7"/><path d="m87.6 52.1c5.3 4.4 9.9 9.6 13.5 15.5"/><path d="m60.9 39.4c7.1 1.4 13.7 4.1 19.7 7.7"/><path d="m114.9 56.1c2.3 3.5 4.3 7.1 6 10.9"/><path d="m53 20.5c22.2 1.2 42 11.5 55.6 27.4"/><path d="m144.9 76.8c.3 1.3.6 2.7.8 4"/><path d="m78.5 5.2c30.5 9.6 54.6 33.7 64.3 64.1"/><path d="m39.8 1c3-.3 6-.4 9-.4 4.1 0 8.1.2 12 .7"/></g></g></svg>

<?xml version="1.0" encoding="UTF-8"?>
<svg width="149px" height="135px" viewBox="0 0 149 135" version="1.1" xmlns="http://www.w3.org/2000/svg" xmlns:xlink="http://www.w3.org/1999/xlink">
    <!-- Generator: Sketch 51.2 (57519) - http://www.bohemiancoding.com/sketch -->
    <title>Phone</title>
    <desc>Created with Sketch.</desc>
    <defs></defs>
    <g id="Page-1" stroke="none" stroke-width="1" fill="none" fill-rule="evenodd">
        <g id="Phone" transform="translate(1.000000, 1.000000)">
            <path d="M15.2,92.5 C12.8,89.1 10.5,85.5 8.3,81.7 C5.4,76.5 3.2,71 1.7,65.2 C-0.2,57.9 1.4,51.2 5.5,45.1 C7,43 8.6,40.9 10.2,38.9 C14.7,33.4 22.4,31.9 28.3,35.9 C33,39.1 37.6,42.6 41.9,46.4 C47.1,50.9 47.7,58.3 43.9,64 C42.7,65.7 41.4,67.3 40.1,69 C37.3,72.6 37.5,75.8 40.5,79.1 C47.9,87.2 56.6,93.6 66.3,98.8 C69.9,100.7 73.1,100 75.7,96.8 C77,95.2 78.2,93.5 79.6,91.9 C84.2,86.4 92.1,85.1 98,89.2 C102.3,92.2 106.5,95.4 110.5,98.8 C116,103.3 117.1,110.9 113.2,116.8 C109.7,122 106.1,127.2 100.2,130 C97.7,131.2 95,131.9 93.4,132.5 C85.4,133 78.7,132.3 72.1,130.6 C48.1,124.5 29,111.8 15.2,92.5" id="Shape" class="fill-neutral" fill-rule="nonzero"></path>
            <path d="M109.6,119.2 C107.3,122.7 104.9,126.1 101.8,128.8 C101.8,128.8 101.7,128.9 101.7,128.9 C101.3,129.3 100.8,129.6 100.4,129.9 C100.4,129.9 100.4,129.9 100.4,129.9 C99.9,130.1 99.5,130.3 99,130.5 C97.4,131.2 95.8,131.7 94.5,132.1 C94.2,132.2 94,132.3 93.8,132.4 C93.6,132.4 93.3,132.4 93.1,132.4 C87.9,132.7 83.2,132.4 78.7,131.7 C78.2,131.6 77.7,131.5 77.2,131.4 C77.1,131.4 77.1,131.4 77,131.4 C76.5,131.3 75.9,131.2 75.4,131.1 C74.5,130.9 73.6,130.7 72.7,130.5 C44.8,123.5 23.6,107.4 9.5,82.2 C9.1,81.4 8.7,80.7 8.3,79.9 C7.9,79.1 7.5,78.3 7.1,77.5 C6.8,76.9 6.5,76.2 6.2,75.5 C6.1,75.2 5.9,74.9 5.8,74.6 C5.5,74 5.3,73.4 5.1,72.8 C5.1,72.7 5,72.7 5,72.6 C4.8,71.9 4.6,71.3 4.5,70.6 C4.2,69.6 4.1,68.7 3.9,67.7 C3.7,66.4 3.7,65.2 3.7,64 C3.7,63.8 3.7,63.6 3.7,63.4 C3.7,63.1 3.7,62.9 3.8,62.6 C3.8,62.5 3.8,62.5 3.8,62.4 C3.8,62.2 3.9,61.9 3.9,61.7 C3.9,61.5 3.9,61.4 4,61.2 C4,61 4.1,60.8 4.1,60.5 C4.2,60.2 4.2,60 4.3,59.7 C4.4,59.2 4.6,58.7 4.7,58.2 C4.7,58 4.8,57.9 4.9,57.7 C5,57.5 5,57.3 5.1,57.1 C5.2,56.9 5.3,56.6 5.4,56.4 C5.5,56.1 5.7,55.8 5.8,55.5 C5.9,55.4 5.9,55.2 6,55.1 C6.1,54.9 6.2,54.6 6.4,54.4 C6.7,53.8 7,53.3 7.4,52.7 C7.6,52.3 7.9,51.9 8.1,51.5 C9.5,49.5 11,47.6 12.6,45.7 C16.8,40.5 24.1,39.1 29.6,42.8 C30,43.1 30.4,43.4 30.9,43.7 C35.2,46.7 40.3,51 43.6,54 C43.8,54.2 44,54.3 44.2,54.5 C45.2,55.8 45.9,57.3 46.3,58.9 C46.4,59.4 46.5,60 46.6,60.5 C46.2,61.9 45.6,63.2 44.7,64.4 C43.6,66.1 42.2,67.7 41,69.3 C40.9,69.4 40.8,69.6 40.7,69.7 C40.7,69.7 40.7,69.7 40.7,69.7 C40.2,70.4 39.8,71.1 39.5,71.8 C38.9,73.3 38.9,74.7 39.4,76.1 C39.3,76.4 39.2,76.6 39.1,76.9 C38.5,79.1 39.1,81.2 41.1,83.4 C48.1,91.1 56.3,97.1 65.4,102 C68.8,103.8 71.8,103.1 74.2,100.1 C75.4,98.6 76.6,97 77.9,95.5 C81.8,90.8 88.2,89.4 93.5,92 C93.8,92.1 94.1,92.3 94.4,92.5 C94.7,92.7 95,92.9 95.2,93 C99.2,95.8 103.2,98.9 107,102 C107.2,102.1 107.3,102.3 107.5,102.4 C107.6,102.5 107.7,102.6 107.8,102.7 C107.9,102.8 108,102.9 108.1,103 C108.9,103.8 109.5,104.6 110,105.5 C110.1,105.7 110.2,105.8 110.3,106 C110.4,106.1 110.5,106.3 110.5,106.5 C110.7,106.9 110.9,107.3 111,107.8 C111,107.9 111.1,108 111.1,108.1 C111.2,108.3 111.2,108.4 111.2,108.6 C111.3,108.9 111.3,109.1 111.4,109.4 L111.4,109.5 C111.5,109.8 111.5,110 111.5,110.3 C111.5,110.5 111.5,110.6 111.5,110.8 C111.5,111 111.5,111.1 111.5,111.3 C111.9,114.1 111.2,116.8 109.6,119.2 Z" id="Shape" class="fill-primary-400" fill-rule="nonzero"></path>
            <path d="M109.6,119.2 C107.3,122.6 105.1,126.3 101.8,128.8 C101.8,128.8 101.7,128.9 101.7,128.9 C100.8,129.5 99.9,130.1 98.9,130.6 C97.5,131.3 96,131.8 94.4,132.2 C93.9,132.3 93.4,132.4 92.9,132.5 C92,132.6 91.1,132.7 90.3,132.8 C86.4,132.9 82.4,132.5 78.5,131.9 C78,131.8 77.5,131.7 77,131.6 C76.9,131.6 76.9,131.6 76.8,131.6 C76.3,131.5 75.7,131.4 75.2,131.3 C74.3,131.1 73.4,130.9 72.5,130.7 C44.6,123.7 23.4,107.6 9.3,82.4 C8.9,81.6 8.5,80.9 8.1,80.1 C7.7,79.3 7.3,78.5 6.9,77.7 C6.6,77.1 6.3,76.4 6,75.7 C5.9,75.4 5.7,75.1 5.6,74.8 C5.3,74.2 5.1,73.6 4.9,73 C4.9,72.9 4.8,72.9 4.8,72.8 C4.6,72.1 4.4,71.5 4.3,70.8 C4,69.8 3.9,68.9 3.7,67.9 C3.5,66.6 3.5,65.4 3.5,64.2 C3.5,64 3.5,63.8 3.5,63.6 C3.5,63.3 3.5,63.1 3.6,62.8 C3.6,62.7 3.6,62.7 3.6,62.6 C3.6,62.4 3.7,62.1 3.7,61.9 C3.7,61.7 3.7,61.6 3.8,61.4 C3.8,61.2 3.9,61 3.9,60.7 C4,60.4 4,60.2 4.1,59.9 C4.2,59.4 4.4,58.9 4.5,58.4 C4.5,58.2 4.6,58.1 4.7,57.9 C4.8,57.7 4.8,57.5 4.9,57.3 C5,57.1 5.1,56.8 5.2,56.6 C5.3,56.3 5.5,56 5.6,55.7 C5.7,55.6 5.7,55.4 5.8,55.3 C5.9,55.1 6,54.8 6.2,54.6 C6.5,54 6.8,53.5 7.2,52.9 C7.4,52.5 7.7,52.1 7.9,51.7 C9.3,49.7 10.8,47.8 12.4,45.9 C16.6,40.7 23.9,39.3 29.4,43 C29.8,43.3 30.2,43.6 30.7,43.9 C35,46.9 40.1,51.2 43.4,54.2 C43,55.2 42.5,56.2 41.9,57.2 C40.8,58.8 39.5,60.3 38.3,61.9 C37.7,62.7 37.2,63.4 36.9,64.2 C35.9,66.7 36.5,65.7 38.7,68.1 C39.1,68.5 39.4,68.9 39.8,69.3 C40,69.5 40.3,69.8 40.5,70 C40.6,70.1 40.7,70.2 40.8,70.3 C40.2,71 39.7,71.6 39.3,72.2 C39.2,72.3 39.1,72.5 39,72.6 C38.9,72.8 38.8,72.9 38.7,73.1 C38.5,73.5 38.3,73.8 38.1,74.3 C37.2,76.4 37.5,76 39,77.3 C39.3,77.5 39.6,77.8 39.9,78.2 C46.9,85.9 56.2,94.1 65.3,99 C68.7,100.8 70.6,102.4 73,99.3 C74.2,97.8 75.4,96.2 76.7,94.7 C80.6,90 88,89.5 93.5,92.3 C93.8,92.4 94.1,92.6 94.4,92.8 C94.7,93 95,93.2 95.2,93.3 C99.2,96.1 103.2,99.2 107,102.3 C107.2,102.4 107.3,102.6 107.5,102.7 C107.6,102.8 107.7,102.9 107.8,103 C107.9,103.1 108,103.2 108.1,103.3 C108.9,104.1 109.5,104.9 110,105.8 C110.1,106 110.2,106.1 110.3,106.3 C110.4,106.4 110.5,106.6 110.5,106.8 C110.7,107.2 110.9,107.6 111,108.1 C111,108.2 111.1,108.3 111.1,108.4 C111.2,108.6 111.2,108.7 111.2,108.9 C111.3,109.2 111.3,109.4 111.4,109.7 L111.4,109.8 C111.5,110.1 111.5,110.3 111.5,110.6 C111.5,110.8 111.5,110.9 111.5,111.1 C111.5,111.3 111.5,111.4 111.5,111.6 C111.9,114.1 111.2,116.8 109.6,119.2 Z" id="Shape" class="fill-primary-200" fill-rule="nonzero"></path>
            <path d="M110.1,105.8 C109.7,107 109.2,108.1 108.5,109.1 C106.2,112.6 104,116.3 100.5,118.8 C97.2,121.1 93.2,122.5 89.2,122.6 C84.8,122.7 80.3,122.2 75.9,121.4 C74.4,121.1 72.9,120.8 71.4,120.4 C43.5,113.4 22.3,97.3 8.2,72.1 C6.5,69 5,65.8 3.8,62.5 C3.8,62.5 3.8,62.4 3.8,62.4 C3.8,62.2 3.9,61.9 3.9,61.7 C3.9,61.5 3.9,61.4 4,61.2 C4,61 4.1,60.8 4.1,60.5 C4.2,60.2 4.2,60 4.3,59.7 C4.4,59.2 4.6,58.7 4.7,58.2 C4.7,58 4.8,57.9 4.9,57.7 C5,57.5 5,57.3 5.1,57.1 C5.2,56.9 5.3,56.6 5.4,56.4 C5.5,56.1 5.7,55.8 5.8,55.5 C5.9,55.4 5.9,55.2 6,55.1 C6.1,54.9 6.2,54.6 6.4,54.4 C6.7,53.8 7,53.3 7.4,52.7 C7.6,52.3 7.9,51.9 8.1,51.5 C9.5,49.5 11,47.6 12.6,45.7 C16.8,40.5 24.1,39.1 29.6,42.8 C30,43.1 30.4,43.4 30.9,43.7 C35.2,46.7 40.3,51 43.6,54 C43.8,54.2 44,54.3 44.2,54.5 C45.6,55.8 46.7,56.7 47.1,57.2 C46.9,57.8 46.6,58.4 46.3,59 C44.6,62.4 41.7,64.8 40.6,67.4 C40.2,68.3 40.1,68.8 40.1,69.1 C40.1,69.5 40.4,69.6 40.8,69.8 C40.9,69.9 41,69.9 41.1,70 C40.5,70.7 40,71.3 39.6,71.9 C39.5,72 39.4,72.2 39.3,72.3 C39.2,72.5 39.1,72.6 39,72.8 C38.8,73.2 38.6,73.5 38.4,74 C37.5,76.1 37.8,75.7 39.3,77 C39.6,77.2 39.9,77.5 40.2,77.9 C47.2,85.6 56.5,93.8 65.6,98.7 C69,100.5 70.9,102.1 73.3,99 C74.5,97.5 75.7,95.9 77,94.4 C80.9,89.7 88.3,89.2 93.8,92 C94.1,92.1 94.4,92.3 94.7,92.5 C95,92.7 95.3,92.9 95.5,93 C99.5,95.8 103.5,98.9 107.3,102 C107.5,102.1 107.6,102.3 107.8,102.4 C107.9,102.5 108,102.6 108.1,102.7 C108.2,102.8 108.3,102.9 108.4,103 C108.9,104.1 109.5,104.9 110.1,105.8 Z" id="Shape" class="fill-primary-100" fill-rule="nonzero"></path>
            <path d="M36.4,41.8 C36.5,41.8 36.5,41.9 36.6,41.9" id="Shape" class="stroke-primary" stroke-width="2.8204" stroke-linecap="round" stroke-linejoin="round"></path>
            <path d="M14.6,91.7 C12.4,88.6 10.2,85.2 8.3,81.7 C5.4,76.5 3.2,71 1.7,65.2 C-0.2,57.9 1.4,51.2 5.5,45.1 C7,43 8.6,40.9 10.2,38.9 C14.7,33.4 22.4,31.9 28.3,35.9 C29.2,36.5 30.1,37.2 31.1,37.8" id="Shape" class="stroke-primary" stroke-width="2.8204" stroke-linecap="round" stroke-linejoin="round"></path>
            <path d="M52.7,123.8 C41.1,118.2 29,109.6 18.8,97.1" id="Shape" class="stroke-primary" stroke-width="2.8204" stroke-linecap="round" stroke-linejoin="round"></path>
            <path d="M41.9,46.3 C47.1,50.8 47.7,58.2 43.9,63.9 C42.7,65.6 41.4,67.2 40.1,68.9 C37.3,72.5 37.5,75.7 40.5,79 C47.9,87.1 56.6,93.5 66.3,98.7 C69.9,100.6 73.1,99.9 75.7,96.7 C77,95.1 78.2,93.4 79.6,91.8 C84.2,86.3 92.1,85 98,89.1 C102.3,92.1 106.5,95.3 110.5,98.7 C116,103.2 117.1,110.8 113.2,116.7 C108.1,124.3 103.9,130.1 93.4,132 C86,133.4 73.4,132.2 59.5,126.8" id="Shape" class="stroke-primary" stroke-width="2.8204" stroke-linecap="round" stroke-linejoin="round"></path>
            <path d="M25.4,50 L10.8,38.3" id="Shape" class="stroke-primary" stroke-width="2.8204" stroke-linecap="round" stroke-linejoin="round"></path>
            <path d="M34.2,57 L31.3,54.7" id="Shape" class="stroke-primary" stroke-width="2.8204" stroke-linecap="round" stroke-linejoin="round"></path>
            <path d="M103.3,110.5 L79.8,91.8" id="Shape" class="stroke-primary" stroke-width="2.8204" stroke-linecap="round" stroke-linejoin="round"></path>
            <path d="M87.6,52.1 C92.9,56.5 97.5,61.7 101.1,67.6" id="Shape" class="stroke-primary-300" stroke-width="2.8204" stroke-linecap="round" stroke-linejoin="round"></path>
            <path d="M60.9,39.4 C68,40.8 74.6,43.5 80.6,47.1" id="Shape" class="stroke-primary-300" stroke-width="2.8204" stroke-linecap="round" stroke-linejoin="round"></path>
            <path d="M114.9,56.1 C117.2,59.6 119.2,63.2 120.9,67" id="Shape" class="stroke-primary-300" stroke-width="2.8204" stroke-linecap="round" stroke-linejoin="round"></path>
            <path d="M53,20.5 C75.2,21.7 95,32 108.6,47.9" id="Shape" class="stroke-primary-300" stroke-width="2.8204" stroke-linecap="round" stroke-linejoin="round"></path>
            <path d="M144.9,76.8 C145.2,78.1 145.5,79.5 145.7,80.8" id="Shape" class="stroke-primary-300" stroke-width="2.8204" stroke-linecap="round" stroke-linejoin="round"></path>
            <path d="M78.5,5.2 C109,14.8 133.1,38.9 142.8,69.3" id="Shape" class="stroke-primary-300" stroke-width="2.8204" stroke-linecap="round" stroke-linejoin="round"></path>
            <path d="M39.8,1 C42.8,0.7 45.8,0.6 48.8,0.6 C52.9,0.6 56.9,0.8 60.8,1.3" id="Shape" class="stroke-primary-300" stroke-width="2.8204" stroke-linecap="round" stroke-linejoin="round"></path>
        </g>
    </g>
</svg>
